X:1
T:Princess Royal
M:4/4
C:
S:Berkeley (1988 May 1)
N:c.f. Bampton and the 2nd Bledington in Bacon
A:Field Town
O:Irish
R:R
Z:transcribed from a 2 person mirror jig
%:
%:
%P:A.AB(CB)$^2$
P:A.AB(CB)2
K:Em
I:speed 800
P:A
B>A | G2  F2 E2 B>A | G2  F2  E2  B2  | c2 A2  A>Bc>A | B2 B>A  G3 \
B   | A2  G2 F2 E2  | D>ED>C  B,2 B>A | G2 F>E D2 B,2 | E4      E2 ||\
P:B
z2  | g2  g2 g2 f>g | a2  d2  d4      | g>fe>d c>BA>G | F>GF>E  D4 |\
      E>DE>F G>FG>A | B2  B2  e3  e   | d2 B2  c3 c   | B2 E2   A4 |\
      B>AG>F E>FG>A | B2  B,2 B,2 B>A | G2 F>E B2 B,2 | E4      E2 ||\
P:C
B>A | G4     F4     | E4      B2  A2  | G4     F4     | E4      B4 |\
      c4     A4     | A2  B2  c2  A2  | B4     B2 A2  | G6      B2 |\
      A2  G2 F2 E2  | D>ED>C  B,2 B>A | G2 F>E D2 B,2 | E4      E4 ||
